X: 13
T:Foxhunter's
M:4/4
L:1/8
R:Reel
K:G maj
|:~d2BG dGBG|dGBG AGEG|~d2BG dGBG|AcBG AGEG:|
|:D3B BABG|DGBG AGEG|D3B BABG|AcBG AGEG:|
|:gedB G2Bd|gedB eA ~A2|gedB GABG|ABcd eA ~A2:|
|:dggf~g2ge|dg~g2egdB|dggf~g2gd|egdB AGAB:|
|:~G2BG dGBG|GB~B2AGAB|~G2BG dGBd|egdB AGAB:|
